src/qt/res/src/clock2.svg

<svg height="16" width="16" xmlns="http://www.w3.org/2000/svg" xmlns:xlink="http://www.w3.org/1999/xlink"><linearGradient id="a" gradientUnits="userSpaceOnUse" x1="2.224874" x2="14.038582" y1="2.830136" y2="13.171574"><stop offset="0" stop-color="#909090"/><stop offset="1" stop-color="#3c3c3c"/></linearGradient><filter id="b"><feGaussianBlur stdDeviation=".3240906"/></filter><linearGradient id="c" gradientUnits="userSpaceOnUse" x1="2.224874" x2="14.038582" y1="2.830136" y2="13.171574"><stop offset="0" stop-color="#ffae82"/><stop offset="1" stop-color="#ff6a19"/></linearGradient><linearGradient id="d" gradientUnits="userSpaceOnUse" x1="10.740074" x2="6.305574" y1="16.148634" y2="-1.279839"><stop offset="0"/><stop offset="1" stop-color="#b3b3b3"/></linearGradient><radialGradient id="e" cx="8.197575" cy="-.080272" gradientTransform="matrix(1.5712985 .01074232 -.01353758 1.9801676 -4.565548 -.683559)" gradientUnits="userSpaceOnUse" r="7.778174"><stop offset="0" stop-color="#fff"/><stop offset=".36363637" stop-color="#ff848d" stop-opacity=".498039"/><stop offset="1" stop-color="#ff0a1b" stop-opacity="0"/></radialGradient><linearGradient id="f" gradientUnits="userSpaceOnUse" x1="2.224874" x2="14.038582" y1="2.830136" y2="13.171574"><stop offset="0" stop-color="#c1c1c1"/><stop offset="1" stop-color="#8c8c8c"/></linearGradient><path d="m15.821514 8.1334372a7.7781744 7.7781744 0 1 1 -15.55634867 0 7.7781744 7.7781744 0 1 1 15.55634867 0z" fill="url(#a)" filter="url(#b)" transform="translate(0 -.088388)"/><path d="m15.821514 8.1334372a7.7781744 7.7781744 0 1 1 -15.55634867 0 7.7781744 7.7781744 0 1 1 15.55634867 0z" fill="url(#c)" transform="matrix(.91562931 0 0 .91562931 .647372 .566585)"/><path d="m15.197954 11.184912a7.7781744 7.7781744 0 1 1 -7.1272218-10.82960101l-.0273925 7.77812621z" fill="url(#f)" transform="matrix(.91562931 0 0 .91562931 .647372 .566585)"/><g><path d="m8.875 2.03125c0 .5005081-.3917508.90625-.875.90625s-.875-.4057419-.875-.90625.3917508-.90625.875-.90625.875.4057419.875.90625zm-3.0265805.6046493c.250254.4334527.1138588.9807109-.3046473 1.2223355s-.9606432.0861172-1.2108972-.3473355c-.250254-.4334528-.1138588-.9807109.3046472-1.2223355.4185061-.2416246.9606432-.0861172 1.2108973.3473355zm-2.3187707 2.0369311c.4334527.250254.5889601.7923911.3473355 1.2108972s-.7888828.5549013-1.2223355.3046472c-.4334528-.250254-.5889602-.7923911-.3473356-1.2108972.2416247-.4185061.7888828-.5549013 1.2223356-.3046472zm-.989649 2.9234201c.5005081 0 .90625.3917508.90625.875s-.4057419.875-.90625.875-.90625-.3917508-.90625-.875.4057419-.875.90625-.875zm.6046492 3.0265805c.4334527-.250254.9807109-.113859 1.2223355.304647s.086117.960643-.3473355 1.210897c-.4334527.250254-.9807109.113859-1.2223355-.304647s-.0861172-.960643.3473355-1.210897zm2.036931 2.31877c.2502541-.433452.7923912-.58896 1.2108973-.347335.4185061.241624.5549012.788883.3046472 1.222335-.2502541.433453-.7923912.58896-1.2108972.347336-.4185061-.241625-.5549013-.788883-.3046473-1.222336zm2.9234201.989649c0-.500508.3917508-.90625.875-.90625s.875.405742.875.90625c0 .500509-.3917508.90625-.875.90625s-.875-.405741-.875-.90625zm3.0265799-.604649c-.250254-.433453-.113859-.980711.304647-1.222335.418507-.241625.960644-.08612 1.210898.347335.250254.433453.113859.980711-.304648 1.222336-.418506.241624-.960643.08612-1.210897-.347336zm2.318771-2.036931c-.433453-.250254-.58896-.792391-.347335-1.210897.241624-.4185064.788882-.5549016 1.222335-.3046476.433453.2502536.58896.7923916.347336 1.2108976-.241625.418506-.788883.554901-1.222336.304647zm.989649-2.92342c-.500508 0-.90625-.3917508-.90625-.875s.405742-.875.90625-.875.90625.3917508.90625.875-.405742.875-.90625.875zm-.604649-3.0265803c-.433453.2502541-.980711.1138589-1.222335-.3046472-.241625-.4185061-.086118-.9606432.347335-1.2108973.433453-.250254.980711-.1138588 1.222336.3046473.241624.4185061.08612.9606432-.347336 1.2108972zm-2.036931-2.3187708c-.250254.4334527-.792391.5889601-1.210897.3473355s-.554902-.7888828-.304648-1.2223355c.250254-.4334528.792392-.5889601 1.210898-.3473355s.554901.7888828.304647 1.2223355z" fill="url(#d)" transform="matrix(.77323696 -.44642857 .44642857 .77323696 -1.97159 5.552933)"/><g fill="none" stroke="#000"><path d="m7.875 2.8017767v5.25"/><path d="m7.7781746 7.4629419 3.0052034.1767767"/></g></g><path d="m15.41196 8.1334372a7.3686199 7.4368792 0 1 1 -14.73724019 0 7.3686199 7.4368792 0 1 1 14.73724019 0z" fill="url(#e)" transform="matrix(.91562931 0 0 .91562931 .647372 .566585)"/></svg>

<?xml version="1.0" encoding="UTF-8" standalone="no"?>
<!-- Created with Inkscape (http://www.inkscape.org/) -->

<svg
   xmlns:dc="http://purl.org/dc/elements/1.1/"
   xmlns:cc="http://creativecommons.org/ns#"
   xmlns:rdf="http://www.w3.org/1999/02/22-rdf-syntax-ns#"
   xmlns:svg="http://www.w3.org/2000/svg"
   xmlns="http://www.w3.org/2000/svg"
   xmlns:xlink="http://www.w3.org/1999/xlink"
   xmlns:sodipodi="http://sodipodi.sourceforge.net/DTD/sodipodi-0.dtd"
   xmlns:inkscape="http://www.inkscape.org/namespaces/inkscape"
   width="16px"
   height="16px"
   id="svg2987"
   version="1.1"
   inkscape:version="0.48.0 r9654"
   sodipodi:docname="clock0.svg">
  <defs
     id="defs2989">
    <linearGradient
       id="linearGradient4465">
      <stop
         id="stop4467"
         offset="0"
         style="stop-color:#c1c1c1;stop-opacity:1;" />
      <stop
         id="stop4469"
         offset="1"
         style="stop-color:#8c8c8c;stop-opacity:1;" />
    </linearGradient>
    <linearGradient
       id="linearGradient4424">
      <stop
         style="stop-color:#000000;stop-opacity:1;"
         offset="0"
         id="stop4426" />
      <stop
         style="stop-color:#b3b3b3;stop-opacity:1;"
         offset="1"
         id="stop4428" />
    </linearGradient>
    <linearGradient
       id="linearGradient4357">
      <stop
         id="stop4359"
         offset="0"
         style="stop-color:#ffffff;stop-opacity:1;" />
      <stop
         style="stop-color:#ff848d;stop-opacity:0.49803922;"
         offset="0.36363637"
         id="stop4473" />
      <stop
         id="stop4361"
         offset="1"
         style="stop-color:#ff0a1b;stop-opacity:0;" />
    </linearGradient>
    <linearGradient
       id="linearGradient4347">
      <stop
         id="stop4349"
         offset="0"
         style="stop-color:#909090;stop-opacity:1;" />
      <stop
         id="stop4351"
         offset="1"
         style="stop-color:#3c3c3c;stop-opacity:1;" />
    </linearGradient>
    <linearGradient
       id="linearGradient3767">
      <stop
         style="stop-color:#ffae82;stop-opacity:1;"
         offset="0"
         id="stop3769" />
      <stop
         style="stop-color:#ff6a19;stop-opacity:1;"
         offset="1"
         id="stop3771" />
    </linearGradient>
    <linearGradient
       inkscape:collect="always"
       xlink:href="#linearGradient4347"
       id="linearGradient3779"
       x1="2.224874"
       y1="2.8301363"
       x2="14.038582"
       y2="13.171574"
       gradientUnits="userSpaceOnUse" />
    <filter
       inkscape:collect="always"
       id="filter4339">
      <feGaussianBlur
         inkscape:collect="always"
         stdDeviation="0.3240906"
         id="feGaussianBlur4341" />
    </filter>
    <linearGradient
       inkscape:collect="always"
       xlink:href="#linearGradient3767"
       id="linearGradient4345"
       gradientUnits="userSpaceOnUse"
       x1="2.224874"
       y1="2.8301363"
       x2="14.038582"
       y2="13.171574" />
    <linearGradient
       inkscape:collect="always"
       xlink:href="#linearGradient4424"
       id="linearGradient4430"
       x1="10.740074"
       y1="16.148634"
       x2="6.3055735"
       y2="-1.2798394"
       gradientUnits="userSpaceOnUse" />
    <radialGradient
       inkscape:collect="always"
       xlink:href="#linearGradient4357"
       id="radialGradient4440"
       gradientUnits="userSpaceOnUse"
       gradientTransform="matrix(1.5712985,0.01074232,-0.01353758,1.9801676,-4.5655476,-0.68355868)"
       cx="8.1975746"
       cy="-0.080271922"
       fx="8.1975746"
       fy="-0.080271922"
       r="7.7781744" />
    <linearGradient
       inkscape:collect="always"
       xlink:href="#linearGradient4465"
       id="linearGradient4471"
       gradientUnits="userSpaceOnUse"
       x1="2.224874"
       y1="2.8301363"
       x2="14.038582"
       y2="13.171574" />
  </defs>
  <sodipodi:namedview
     id="base"
     pagecolor="#ffffff"
     bordercolor="#666666"
     borderopacity="1.0"
     inkscape:pageopacity="0.0"
     inkscape:pageshadow="2"
     inkscape:zoom="1"
     inkscape:cx="10.569917"
     inkscape:cy="10.828475"
     inkscape:current-layer="layer5"
     showgrid="true"
     inkscape:grid-bbox="true"
     inkscape:document-units="px"
     inkscape:window-width="1920"
     inkscape:window-height="1127"
     inkscape:window-x="0"
     inkscape:window-y="25"
     inkscape:window-maximized="1"
     showguides="true"
     inkscape:guide-bbox="true" />
  <metadata
     id="metadata2992">
    <rdf:RDF>
      <cc:Work
         rdf:about="">
        <dc:format>image/svg+xml</dc:format>
        <dc:type
           rdf:resource="http://purl.org/dc/dcmitype/StillImage" />
        <dc:title></dc:title>
      </cc:Work>
    </rdf:RDF>
  </metadata>
  <g
     inkscape:groupmode="layer"
     id="layer4"
     inkscape:label="Shadow"
     style="display:inline"
     sodipodi:insensitive="true">
    <path
       sodipodi:type="arc"
       style="fill:url(#linearGradient3779);fill-opacity:1;stroke:none;display:inline;filter:url(#filter4339)"
       id="path2997"
       sodipodi:cx="8.0433397"
       sodipodi:cy="8.1334372"
       sodipodi:rx="7.7781744"
       sodipodi:ry="7.7781744"
       d="m 15.821514,8.1334372 a 7.7781744,7.7781744 0 1 1 -15.55634867,0 7.7781744,7.7781744 0 1 1 15.55634867,0 z"
       transform="translate(0,-0.08838835)" />
  </g>
  <g
     id="layer1"
     inkscape:label="Clock"
     inkscape:groupmode="layer"
     style="display:inline"
     sodipodi:insensitive="true">
    <path
       transform="matrix(0.91562931,0,0,0.91562931,0.64737218,0.56658541)"
       d="m 15.821514,8.1334372 a 7.7781744,7.7781744 0 1 1 -15.55634867,0 7.7781744,7.7781744 0 1 1 15.55634867,0 z"
       sodipodi:ry="7.7781744"
       sodipodi:rx="7.7781744"
       sodipodi:cy="8.1334372"
       sodipodi:cx="8.0433397"
       id="path4343"
       style="fill:url(#linearGradient4345);fill-opacity:1;stroke:none"
       sodipodi:type="arc" />
  </g>
  <g
     inkscape:groupmode="layer"
     id="layer5"
     inkscape:label="Block"
     style="display:inline"
     sodipodi:insensitive="true">
    <path
       sodipodi:type="arc"
       style="fill:url(#linearGradient4471);fill-opacity:1;stroke:none;display:inline"
       id="path4462"
       sodipodi:cx="8.0433397"
       sodipodi:cy="8.1334372"
       sodipodi:rx="7.7781744"
       sodipodi:ry="7.7781744"
       d="M 15.197954,11.184912 A 7.7781744,7.7781744 0 1 1 8.0707322,0.35531099 L 8.0433397,8.1334372 z"
       transform="matrix(0.91562931,0,0,0.91562931,0.64737218,0.56658541)"
       sodipodi:start="0.4031442"
       sodipodi:end="4.7159107" />
  </g>
  <g
     inkscape:groupmode="layer"
     id="layer2"
     inkscape:label="Ticks"
     style="display:inline"
     sodipodi:insensitive="true">
    <path
       id="use4309"
       transform="matrix(0.77323696,-0.44642857,0.44642857,0.77323696,-1.9715899,5.5529328)"
       style="fill:url(#linearGradient4430);fill-opacity:1;stroke:none"
       d="M 8.875,2.03125 C 8.875,2.5317581 8.4832492,2.9375 8,2.9375 7.5167508,2.9375 7.125,2.5317581 7.125,2.03125 7.125,1.5307419 7.5167508,1.125 8,1.125 c 0.4832492,0 0.875,0.4057419 0.875,0.90625 z M 5.8484195,2.6358993 C 6.0986735,3.069352 5.9622783,3.6166102 5.5437722,3.8582348 5.1252661,4.0998594 4.583129,3.944352 4.332875,3.5108993 4.082621,3.0774465 4.2190162,2.5301884 4.6375222,2.2885638 5.0560283,2.0469392 5.5981654,2.2024466 5.8484195,2.6358993 z M 3.5296488,4.6728304 C 3.9631015,4.9230844 4.1186089,5.4652215 3.8769843,5.8837276 3.6353597,6.3022337 3.0881015,6.4386289 2.6546488,6.1883748 2.221196,5.9381208 2.0656886,5.3959837 2.3073132,4.9774776 2.5489379,4.5589715 3.096196,4.4225763 3.5296488,4.6728304 z m -0.989649,2.9234201 c 0.5005081,0 0.90625,0.3917508 0.90625,0.875 0,0.4832492 -0.4057419,0.875 -0.90625,0.875 -0.5005081,0 -0.90625,-0.3917508 -0.90625,-0.875 0,-0.4832492 0.4057419,-0.875 0.90625,-0.875 z M 3.144649,10.622831 c 0.4334527,-0.250254 0.9807109,-0.113859 1.2223355,0.304647 0.2416246,0.418506 0.086117,0.960643 -0.3473355,1.210897 C 3.5861963,12.388629 3.0389381,12.252234 2.7973135,11.833728 2.5556889,11.415222 2.7111963,10.873085 3.144649,10.622831 z m 2.036931,2.31877 c 0.2502541,-0.433452 0.7923912,-0.58896 1.2108973,-0.347335 0.4185061,0.241624 0.5549012,0.788883 0.3046472,1.222335 -0.2502541,0.433453 -0.7923912,0.58896 -1.2108972,0.347336 C 5.0677212,13.922312 4.931326,13.375054 5.18158,12.941601 z m 2.9234201,0.989649 c 0,-0.500508 0.3917508,-0.90625 0.875,-0.90625 0.4832492,0 0.875,0.405742 0.875,0.90625 0,0.500509 -0.3917508,0.90625 -0.875,0.90625 -0.4832492,0 -0.875,-0.405741 -0.875,-0.90625 z M 11.13158,13.326601 c -0.250254,-0.433453 -0.113859,-0.980711 0.304647,-1.222335 0.418507,-0.241625 0.960644,-0.08612 1.210898,0.347335 0.250254,0.433453 0.113859,0.980711 -0.304648,1.222336 -0.418506,0.241624 -0.960643,0.08612 -1.210897,-0.347336 z m 2.318771,-2.036931 c -0.433453,-0.250254 -0.58896,-0.792391 -0.347335,-1.210897 0.241624,-0.4185064 0.788882,-0.5549016 1.222335,-0.3046476 0.433453,0.2502536 0.58896,0.7923916 0.347336,1.2108976 -0.241625,0.418506 -0.788883,0.554901 -1.222336,0.304647 z M 14.44,8.36625 c -0.500508,0 -0.90625,-0.3917508 -0.90625,-0.875 0,-0.4832492 0.405742,-0.875 0.90625,-0.875 0.500508,0 0.90625,0.3917508 0.90625,0.875 0,0.4832492 -0.405742,0.875 -0.90625,0.875 z M 13.835351,5.3396697 C 13.401898,5.5899238 12.85464,5.4535286 12.613016,5.0350225 12.371391,4.6165164 12.526898,4.0743793 12.960351,3.8241252 c 0.433453,-0.250254 0.980711,-0.1138588 1.222336,0.3046473 0.241624,0.4185061 0.08612,0.9606432 -0.347336,1.2108972 z M 11.79842,3.0208989 C 11.548166,3.4543516 11.006029,3.609859 10.587523,3.3682344 10.169017,3.1266098 10.032621,2.5793516 10.282875,2.1458989 10.533129,1.7124461 11.075267,1.5569388 11.493773,1.7985634 11.912279,2.040188 12.048674,2.5874462 11.79842,3.0208989 z"
       inkscape:connector-curvature="0" />
    <path
       style="fill:none;stroke:#000000;stroke-width:1px;stroke-linecap:butt;stroke-linejoin:miter;stroke-opacity:1"
       d="m 7.875,2.8017767 0,5.25"
       id="path4436"
       inkscape:connector-curvature="0" />
    <path
       style="fill:none;stroke:#000000;stroke-width:1px;stroke-linecap:butt;stroke-linejoin:miter;stroke-opacity:1"
       d="M 7.7781746,7.4629419 10.783378,7.6397186"
       id="path4438"
       inkscape:connector-curvature="0" />
  </g>
  <g
     inkscape:groupmode="layer"
     id="layer3"
     inkscape:label="Shine"
     style="display:inline"
     sodipodi:insensitive="true">
    <path
       sodipodi:type="arc"
       style="fill:url(#radialGradient4440);fill-opacity:1;stroke:none"
       id="path4353"
       sodipodi:cx="8.0433397"
       sodipodi:cy="8.1334372"
       sodipodi:rx="7.3686199"
       sodipodi:ry="7.4368792"
       d="m 15.41196,8.1334372 a 7.3686199,7.4368792 0 1 1 -14.73724019,0 7.3686199,7.4368792 0 1 1 14.73724019,0 z"
       transform="matrix(0.91562931,0,0,0.91562931,0.64737218,0.56658541)" />
  </g>
</svg>
